svgs/light/underline.svg

<svg xmlns="http://www.w3.org/2000/svg" viewBox="0 0 448 512"><!--! Font Awesome Pro 6.6.0 by @fontawesome - https://fontawesome.com License - https://fontawesome.com/license (Commercial License) Copyright 2024 Fonticons, Inc. --><path d="M0 48c0-8.8 7.2-16 16-16l128 0c8.8 0 16 7.2 16 16s-7.2 16-16 16L96 64l0 160c0 70.7 57.3 128 128 128s128-57.3 128-128l0-160-48 0c-8.8 0-16-7.2-16-16s7.2-16 16-16l128 0c8.8 0 16 7.2 16 16s-7.2 16-16 16l-48 0 0 160c0 88.4-71.6 160-160 160s-160-71.6-160-160L64 64 16 64C7.2 64 0 56.8 0 48zM0 464c0-8.8 7.2-16 16-16l416 0c8.8 0 16 7.2 16 16s-7.2 16-16 16L16 480c-8.8 0-16-7.2-16-16z"/></svg>

<svg xmlns="http://www.w3.org/2000/svg" viewBox="0 0 448 512"><!--! Font Awesome Pro 6.4.0 by @fontawesome - https://fontawesome.com License - https://fontawesome.com/license (Commercial License) Copyright 2023 Fonticons, Inc. --><path d="M0 48c0-8.8 7.2-16 16-16H144c8.8 0 16 7.2 16 16s-7.2 16-16 16H96V224c0 70.7 57.3 128 128 128s128-57.3 128-128V64H304c-8.8 0-16-7.2-16-16s7.2-16 16-16H432c8.8 0 16 7.2 16 16s-7.2 16-16 16H384V224c0 88.4-71.6 160-160 160s-160-71.6-160-160V64H16C7.2 64 0 56.8 0 48zM0 464c0-8.8 7.2-16 16-16H432c8.8 0 16 7.2 16 16s-7.2 16-16 16H16c-8.8 0-16-7.2-16-16z"/></svg>
